packages/icons/raw/shadcn/beer.svg

<svg width="24" height="24" viewBox="0 0 24 24" fill="none" xmlns="http://www.w3.org/2000/svg">
<path d="M17 11H18C18.7956 11 19.5587 11.3161 20.1213 11.8787C20.6839 12.4413 21 13.2044 21 14C21 14.7956 20.6839 15.5587 20.1213 16.1213C19.5587 16.6839 18.7956 17 18 17H17" stroke="black" stroke-width="2" stroke-linecap="round" stroke-linejoin="round"/>
<path d="M9 12V18" stroke="black" stroke-width="2" stroke-linecap="round" stroke-linejoin="round"/>
<path d="M13 12V18" stroke="black" stroke-width="2" stroke-linecap="round" stroke-linejoin="round"/>
<path d="M14 7.5C13 7.5 12.56 8 11 8C9.44 8 9 7.5 8 7.5C7 7.5 6.28 8 5.5 8C4.83696 8 4.20107 7.73661 3.73223 7.26777C3.26339 6.79893 3 6.16304 3 5.5C3 4.83696 3.26339 4.20107 3.73223 3.73223C4.20107 3.26339 4.83696 3 5.5 3C6.28 3 7.07 3.5 8 3.5C8.93 3.5 9.44 2 11 2C12.56 2 13 3.5 14 3.5C15 3.5 15.72 3 16.5 3C17.163 3 17.7989 3.26339 18.2678 3.73223C18.7366 4.20107 19 4.83696 19 5.5C19 6.16304 18.7366 6.79893 18.2678 7.26777C17.7989 7.73661 17.163 8 16.5 8C15.72 8 15 7.5 14 7.5Z" stroke="black" stroke-width="2" stroke-linecap="round" stroke-linejoin="round"/>
<path d="M5 8V20C5 20.5304 5.21071 21.0391 5.58579 21.4142C5.96086 21.7893 6.46957 22 7 22H15C15.5304 22 16.0391 21.7893 16.4142 21.4142C16.7893 21.0391 17 20.5304 17 20V8" stroke="black" stroke-width="2" stroke-linecap="round" stroke-linejoin="round"/>
</svg>

<!-- @license lucide-static v1.23.0 - ISC -->
<svg
  class="lucide lucide-beer"
  xmlns="http://www.w3.org/2000/svg"
  width="24"
  height="24"
  viewBox="0 0 24 24"
  fill="none"
  stroke="currentColor"
  stroke-width="2"
  stroke-linecap="round"
  stroke-linejoin="round"
>
  <path d="M17 11h1a3 3 0 0 1 0 6h-1" />
  <path d="M9 12v6" />
  <path d="M13 12v6" />
  <path d="M14 7.5c-1 0-1.44.5-3 .5s-2-.5-3-.5-1.72.5-2.5.5a2.5 2.5 0 0 1 0-5c.78 0 1.57.5 2.5.5S9.44 2 11 2s2 1.5 3 1.5 1.72-.5 2.5-.5a2.5 2.5 0 0 1 0 5c-.78 0-1.5-.5-2.5-.5Z" />
  <path d="M5 8v12a2 2 0 0 0 2 2h8a2 2 0 0 0 2-2V8" />
</svg>
